img/svg/social/inst.svg

<svg fill="none" height="18" viewBox="0 0 18 18" width="18" xmlns="http://www.w3.org/2000/svg"><path clip-rule="evenodd" d="m0 9c0-4.97036 4.02964-9 9-9 4.9704 0 9 4.02964 9 9 0 4.9704-4.0296 9-9 9-4.97036 0-9-4.0296-9-9zm11.6824 5.438c1.5063 0 2.7314-1.2251 2.7314-2.7313v-5.36485c0-1.50605-1.2251-2.73134-2.7314-2.73134h-5.36481c-1.50605 0-2.73135 1.22529-2.73135 2.73134v5.36485c0 1.5062 1.2253 2.7313 2.73135 2.7313zm0-9.64907h-5.3648c-.85631 0-1.55298.69667-1.55298 1.55297v5.3648c0 .8563.69667 1.5532 1.55298 1.5532h5.3648c.8563 0 1.5532-.6967 1.5532-1.5532v-5.3648c0-.8563-.6967-1.55297-1.5532-1.55297zm-2.68239 7.02407c-1.53753 0-2.7885-1.2509-2.7885-2.78868 0-1.53754 1.25097-2.7885 2.7885-2.7885 1.53769 0 2.78869 1.25096 2.78869 2.7885 0 1.53758-1.2512 2.78868-2.78869 2.78868zm2.87829-5.00063c-.3639 0-.6599-.296-.6599-.65978 0-.36377.296-.65977.6599-.65977.3638 0 .6598.296.6598.65977 0 .36378-.296.65978-.6598.65978zm-2.87834.60204c-.88758 0-1.61033.72235-1.61033 1.60993 0 .88799.72275 1.61056 1.61033 1.61056.88799 0 1.61014-.72257 1.61014-1.61056 0-.88738-.72235-1.60993-1.61014-1.60993z" fill="#e7112f" fill-rule="evenodd"/></svg>

<svg fill="none" height="18" width="18" xmlns="http://www.w3.org/2000/svg"><path clip-rule="evenodd" d="M0 9a9 9 0 1118 0A9 9 0 010 9zm11.682 5.438a2.734 2.734 0 002.732-2.731V6.342a2.734 2.734 0 00-2.732-2.731H6.318a2.734 2.734 0 00-2.732 2.73v5.366a2.734 2.734 0 002.732 2.731zm0-9.65H6.318c-.857 0-1.553.698-1.553 1.554v5.365c0 .856.696 1.553 1.553 1.553h5.364c.857 0 1.554-.697 1.554-1.553V6.342c0-.856-.697-1.553-1.554-1.553zM9 11.814a2.792 2.792 0 01-2.788-2.789A2.792 2.792 0 019 6.236a2.792 2.792 0 012.789 2.788A2.792 2.792 0 019 11.813zm2.878-5a.66.66 0 11.002-1.322.66.66 0 01-.002 1.321zM9 7.413c-.888 0-1.61.723-1.61 1.61 0 .888.722 1.61 1.61 1.61.888 0 1.61-.722 1.61-1.61 0-.887-.722-1.61-1.61-1.61z" fill="#e7112f" fill-rule="evenodd"/></svg>
